public/avatar/shoe/161.svg

<svg xmlns:xlink="http://www.w3.org/1999/xlink" height="38.3" width="36.05" xmlns="http://www.w3.org/2000/svg"><use height="20.1" transform="translate(11.7 10.1)" width="20.85" xlink:href="#a"/><defs><g id="a" fill-rule="evenodd"><path d="M6.95 9 8.2 5.9l.4-1.25q.35-2-.2-4.65-.75-3.3-2.8-4-7.2-2.25-12.25 2.35-1 .85-3.15 4.3-1.55 2.55-2.05 4.7-.45 2.15-.1 3.65.5 2.75 1.8 3.5 1.5.9 4.5.85 4.05-.1 7.25-2.5l2.55-2.5q.65.85.95.8Q6.05 11 6.95 9" transform="translate(12.1 4.75)"/><path d="M1.2-3.8q-4.35.05-7.3 2.7Q-7.85.65-9.4 3.25l-.15.15q-1.4 2.55-1.8 4.3-.3 1.5.05 2.4.9 2.8 1.6 3.1 5.15 2.05 10.8-1.1l1.85-1.75 1.5-1.6.5.75.6.5q.5-1.55 1.9-4.55l.4-1.05Q8.2 2.65 7.7.2q-.6-2.95-2.15-3.45L1.2-3.8" fill="#ca0000" transform="translate(12.1 4.75)"/><path d="m3.6-3.3-4.45.25q-2.85.75-4.1 2.3l-2.1 2.9q1.25-.55 4-.05 1.6.25 2.5 1.35L.6 4.4q.55-.15 1.75-2.05Q3.7.1 5.15-.8q1.7-1 .25-1.85L3.6-3.3" fill="#720000" transform="translate(12.1 4.75)"/><path d="m5.55 10 2.3-5.6Q8.4 3 7.45-.75q-.1-.55-2.05 2.9-1.85 3.35-2.55 5.3-.75 1.9-4.3 3.95-3.7 2.2-6.15 2-3.3-.2-3.8-4.3-.4 4.3 2.7 5 5.75 1.25 9.25-1.6Q3.85 9 4.7 8.7q.15 1.5.85 1.3" fill="#a20000" transform="translate(12.1 4.75)"/><path d="M4.6 8.9q.75 1.3.95 1.1L6.8 7.5q1.05-2.55 1.15-3.6L7.7.5l-.4 2.4q-1.4 1.45-2.7 6" fill="#720000" transform="translate(12.1 4.75)"/><path d="m-4.1-1.9 3.95-1.75-1.5.3q-1.8.5-3.45 1.55l-3 3.3q-3.3 4.2-3.1 7.45.05-1.25.85-3Q-9.2 3.6-7.6 3.1l4.15-.2 2.4.2q.15-.25-.85-.7-1.25-.55-2.95-.4l-2.85.45.65-1Q-5.2-1.1-4.1-1.9" fill="#ff7281" transform="translate(12.1 4.75)"/><path d="M-4.15 3.15q-2.05-.3-3.55.5-1.15.6-1.65 1.45l-.45 1.05q-.5 1.8.85 3.2l-.45 1.1q.2.65 1.05 1l1.25.05.9.6q.55.15 1.1-.2l1.25.1.9-.5q.35-.4.35-1.15 1.8-.75 2.3-1.4L.35 8Q1.2 6.35-.1 4.9q-1.3-1.4-4.05-1.75" fill="#720000" transform="translate(12.1 4.75)"/><path d="M-4.6 2.95q-2-.25-3.55.5L-9.8 4.9l-.35 1.05q-.5 1.8.75 3.2-.5.7-.4 1.1.25.75.7.95l1.2.15 1 .5 1.35-.15 1.25.15q.6-.1.9-.5.5-.6.5-1.2 1.5-.45 2.2-1.4l.6-1Q.7 6.1-.6 4.7q-1.25-1.35-4-1.75" transform="translate(12.1 4.75)"/><path d="m-6.8 11.4 1.2-.4q.25.45 1.2.35.55-.1.8-.85l.05-.75q1.95-.1 2.9-2.15Q.9 4.1-4.7 3.25q-4.1-.5-5.15 2.9-.5 1.75 1 2.8-1.35 1.25.05 1.8l1.15-.05q.1.5.85.7" fill="#fff" transform="translate(12.1 4.75)"/><path d="M-5.7 6.65q2.1 2 3.1.8Q-.95 5.5-3.8 5.7q-1 0-1.9.95M-6.2 8q-.35.5 0 .85l.55.05q.35-.2-.55-.9" fill="#32322d" transform="translate(12.1 4.75)"/><path d="M-2.45 5.1q1 1.75-.95 3.05l-2.9 2q.75-.3 1.6-.45.6 0 .4.8-.1.7.1.6.3-1.5.5-1.45 2.1-1 2.75-2.7.8-2.2-2.9-3.45l1.4 1.6" fill="#d2d2d2" transform="translate(12.1 4.75)"/><path d="m-1.8 4.9.1.95q.5 1.1-1.85 3.1l-1.6.55 1.2.25 2.05-1.6q1-.75.7-2.05l-.6-1.2" fill="#959595" transform="translate(12.1 4.75)"/><path d="m-7.05 6.4-1.5-1.05q-1.65-.15-.5 1.55.85 1.25 2-.5M-6.8 8q-1 .35-.6.7l.6.15q.35-.2 0-.85" fill="#32322d" transform="translate(12.1 4.75)"/><path d="M-6.3 11.1h-.05l-.35-.05-.4-.05.4.05.35.05h.05l.45.05q1.05-.65.55-1.5l-.8.25q.3.25.2.7-.15.45-.4.5m-2.8-.7q1.65.85 1.95-.7l-1.15-.75.65.9q0 .85-1.45.55" fill="#d2d2d2" transform="translate(12.1 4.75)"/><path d="M-4.9-.65-6.95 2.2l4-.1q1.55.3 2.5 1.4.8.95 1.1.9.55-.15 1.45-1.5Q3.2 1.1 3.9.35q-1.25.8-3.2 3.4-.5.1-2.5-1.75-.9-.55-2.75-.5l-1.55.25L-4.2-.8Q-2.8-2.4 1.6-3l3.05.4q1.5.6 1 1.5Q6.7-2 5.3-2.75L3.65-3.3l-4.45.25q-2.85.75-4.1 2.4" transform="translate(12.1 4.75)"/><path d="m.15-.15 4.25-.2-4.55-.2Q-1.95-.1-3.3 1.7l.75.05Q-.95.2.15-.15" transform="translate(12.1 4.75)"/></g></defs></svg>

<?xml version="1.0" encoding="UTF-8" standalone="no"?>
<svg xmlns:xlink="http://www.w3.org/1999/xlink" height="38.3px" width="36.05px" xmlns="http://www.w3.org/2000/svg">
  <g transform="matrix(1.0, 0.0, 0.0, 1.0, 23.8, 14.85)">
    <use height="20.1" transform="matrix(1.0, 0.0, 0.0, 1.0, -12.1, -4.75)" width="20.85" xlink:href="#shape0"/>
  </g>
  <defs>
    <g id="shape0" transform="matrix(1.0, 0.0, 0.0, 1.0, 12.1, 4.75)">
      <path d="M6.95 9.0 L8.2 5.9 8.6 4.65 Q8.95 2.65 8.4 0.0 7.65 -3.3 5.6 -4.0 -1.6 -6.25 -6.65 -1.65 -7.65 -0.8 -9.8 2.65 -11.35 5.2 -11.85 7.35 -12.3 9.5 -11.95 11.0 -11.45 13.75 -10.15 14.5 -8.65 15.4 -5.65 15.35 -1.6 15.25 1.6 12.85 L4.15 10.35 Q4.8 11.2 5.1 11.15 6.05 11.0 6.95 9.0" fill="#000000" fill-rule="evenodd" stroke="none"/>
      <path d="M1.2 -3.8 Q-3.15 -3.75 -6.1 -1.1 -7.85 0.65 -9.4 3.25 L-9.55 3.4 Q-10.95 5.95 -11.35 7.7 -11.65 9.2 -11.3 10.1 -10.4 12.9 -9.7 13.2 -4.55 15.25 1.1 12.1 L2.95 10.35 4.45 8.75 4.95 9.5 5.55 10.0 Q6.05 8.45 7.45 5.45 L7.85 4.4 Q8.2 2.65 7.7 0.2 7.1 -2.75 5.55 -3.25 L1.2 -3.8" fill="#ca0000" fill-rule="evenodd" stroke="none"/>
      <path d="M3.6 -3.3 L-0.85 -3.05 Q-3.7 -2.3 -4.95 -0.75 L-7.05 2.15 Q-5.8 1.6 -3.05 2.1 -1.45 2.35 -0.55 3.45 L0.6 4.4 Q1.15 4.25 2.35 2.35 3.7 0.1 5.15 -0.8 6.85 -1.8 5.4 -2.65 L3.6 -3.3" fill="#720000" fill-rule="evenodd" stroke="none"/>
      <path d="M5.55 10.0 L7.85 4.4 Q8.4 3.0 7.45 -0.75 7.35 -1.3 5.4 2.15 3.55 5.5 2.85 7.45 2.1 9.35 -1.45 11.4 -5.15 13.6 -7.6 13.4 -10.9 13.2 -11.4 9.1 -11.8 13.4 -8.7 14.1 -2.95 15.35 0.55 12.5 3.85 9.0 4.7 8.7 4.85 10.2 5.55 10.0" fill="#a20000" fill-rule="evenodd" stroke="none"/>
      <path d="M4.6 8.9 Q5.35 10.2 5.55 10.0 L6.8 7.5 Q7.85 4.95 7.95 3.9 L7.7 0.5 7.3 2.9 Q5.9 4.35 4.6 8.9" fill="#720000" fill-rule="evenodd" stroke="none"/>
      <path d="M-4.1 -1.9 L-0.15 -3.65 -1.65 -3.35 Q-3.45 -2.85 -5.1 -1.8 L-8.1 1.5 Q-11.4 5.7 -11.2 8.95 -11.15 7.7 -10.35 5.95 -9.2 3.6 -7.6 3.1 L-3.45 2.9 -1.05 3.1 Q-0.9 2.85 -1.9 2.4 -3.15 1.85 -4.85 2.0 L-7.7 2.45 -7.05 1.45 Q-5.2 -1.1 -4.1 -1.9" fill="#ff7281" fill-rule="evenodd" stroke="none"/>
      <path d="M-4.15 3.15 Q-6.2 2.85 -7.7 3.65 -8.85 4.25 -9.35 5.1 L-9.8 6.15 Q-10.3 7.95 -8.95 9.35 L-9.4 10.45 Q-9.2 11.1 -8.35 11.45 L-7.1 11.5 -6.2 12.1 Q-5.65 12.25 -5.1 11.9 L-3.85 12.0 -2.95 11.5 Q-2.6 11.1 -2.6 10.35 -0.8 9.6 -0.3 8.95 L0.35 8.0 Q1.2 6.35 -0.1 4.9 -1.4 3.5 -4.15 3.15" fill="#720000" fill-rule="evenodd" stroke="none"/>
      <path d="M-4.6 2.95 Q-6.6 2.7 -8.15 3.45 L-9.8 4.9 -10.15 5.95 Q-10.65 7.75 -9.4 9.15 -9.9 9.85 -9.8 10.25 -9.55 11.0 -9.1 11.2 L-7.9 11.35 -6.9 11.85 -5.55 11.7 -4.3 11.85 Q-3.7 11.75 -3.4 11.35 -2.9 10.75 -2.9 10.15 -1.4 9.7 -0.7 8.75 L-0.1 7.75 Q0.7 6.1 -0.6 4.7 -1.85 3.35 -4.6 2.95" fill="#000000" fill-rule="evenodd" stroke="none"/>
      <path d="M-6.8 11.4 L-5.6 11.0 Q-5.35 11.45 -4.4 11.35 -3.85 11.25 -3.6 10.5 L-3.55 9.75 Q-1.6 9.65 -0.65 7.6 0.9 4.1 -4.7 3.25 -8.8 2.75 -9.85 6.15 -10.35 7.9 -8.85 8.95 -10.2 10.2 -8.8 10.75 L-7.65 10.7 Q-7.55 11.2 -6.8 11.4" fill="#ffffff" fill-rule="evenodd" stroke="none"/>
      <path d="M-5.7 6.65 Q-3.6 8.65 -2.6 7.45 -0.95 5.5 -3.8 5.7 -4.8 5.7 -5.7 6.65" fill="#32322d" fill-rule="evenodd" stroke="none"/>
      <path d="M-6.2 8.0 Q-6.55 8.5 -6.2 8.85 L-5.65 8.9 Q-5.3 8.7 -6.2 8.0" fill="#32322d" fill-rule="evenodd" stroke="none"/>
      <path d="M-2.45 5.1 Q-1.45 6.85 -3.4 8.15 L-6.3 10.15 Q-5.55 9.85 -4.7 9.7 -4.1 9.7 -4.3 10.5 -4.4 11.2 -4.2 11.1 -3.9 9.6 -3.7 9.65 -1.6 8.65 -0.95 6.95 -0.15 4.75 -3.85 3.5 L-2.45 5.1" fill="#d2d2d2" fill-rule="evenodd" stroke="none"/>
      <path d="M-1.8 4.9 L-1.7 5.85 Q-1.2 6.95 -3.55 8.95 L-5.15 9.5 -3.95 9.75 -1.9 8.15 Q-0.9 7.4 -1.2 6.1 L-1.8 4.9" fill="#959595" fill-rule="evenodd" stroke="none"/>
      <path d="M-7.05 6.4 L-8.55 5.35 Q-10.2 5.2 -9.05 6.9 -8.2 8.15 -7.05 6.4" fill="#32322d" fill-rule="evenodd" stroke="none"/>
      <path d="M-6.8 8.0 Q-7.8 8.35 -7.4 8.7 L-6.8 8.85 Q-6.45 8.65 -6.8 8.0" fill="#32322d" fill-rule="evenodd" stroke="none"/>
      <path d="M-6.3 11.1 L-6.35 11.1 -6.7 11.05 -7.1 11.0 -6.7 11.05 -6.35 11.1 -6.3 11.1 -5.85 11.15 Q-4.8 10.5 -5.3 9.65 L-6.1 9.9 Q-5.8 10.15 -5.9 10.6 -6.05 11.05 -6.3 11.1" fill="#d2d2d2" fill-rule="evenodd" stroke="none"/>
      <path d="M-9.1 10.4 Q-7.45 11.25 -7.15 9.7 L-8.3 8.95 -7.65 9.85 Q-7.65 10.7 -9.1 10.4" fill="#d2d2d2" fill-rule="evenodd" stroke="none"/>
      <path d="M-4.9 -0.65 L-6.95 2.2 -2.95 2.1 Q-1.4 2.4 -0.45 3.5 0.35 4.45 0.65 4.4 1.2 4.25 2.1 2.9 3.2 1.1 3.9 0.35 2.65 1.15 0.7 3.75 0.2 3.85 -1.8 2.0 -2.7 1.45 -4.55 1.5 L-6.1 1.75 -4.2 -0.8 Q-2.8 -2.4 1.6 -3.0 L4.65 -2.6 Q6.15 -2.0 5.65 -1.1 6.7 -2.0 5.3 -2.75 L3.65 -3.3 -0.8 -3.05 Q-3.65 -2.3 -4.9 -0.65" fill="#000000" fill-rule="evenodd" stroke="none"/>
      <path d="M0.15 -0.15 L4.4 -0.35 -0.15 -0.55 Q-1.95 -0.1 -3.3 1.7 L-2.55 1.75 Q-0.95 0.2 0.15 -0.15" fill="#000000" fill-rule="evenodd" stroke="none"/>
    </g>
  </defs>
</svg>
